dist/images/search-primary.svg

<?xml version="1.0" encoding="UTF-8"?>
<svg width="15px" height="15px" viewBox="0 0 15 15" version="1.1" xmlns="http://www.w3.org/2000/svg" xmlns:xlink="http://www.w3.org/1999/xlink">
    <!-- Generator: Sketch 43.2 (39069) - http://www.bohemiancoding.com/sketch -->
    <title>Fill 200 Copy</title>
    <desc>Created with Sketch.</desc>
    <defs></defs>
    <g id="Symbols" stroke="none" stroke-width="1" fill="none" fill-rule="evenodd">
        <g id="UI-element-/-Icons-/-Search---blue" fill="#0071BC">
            <path d="M9.19897377,9.19897377 C9.9895477,8.40935006 10.3848347,7.4581908 10.3848347,6.34644622 C10.3848347,5.23470163 9.9895477,4.28354238 9.19897377,3.49296845 C8.40935006,2.70334474 7.4581908,2.30805777 6.34644622,2.30805777 C5.23470163,2.30805777 4.28354238,2.70334474 3.49296845,3.49296845 C2.70334474,4.28354238 2.30805777,5.23470163 2.30805777,6.34644622 C2.30805777,7.4581908 2.70334474,8.40935006 3.49296845,9.19897377 C4.28354238,9.9895477 5.23470163,10.3848347 6.34644622,10.3848347 C7.4581908,10.3848347 8.40935006,9.9895477 9.19897377,9.19897377 L9.19897377,9.19897377 Z M14.6664766,13.0349677 C14.8888255,13.2573166 15,13.5281262 15,13.8464462 C15,14.159065 14.8859749,14.4289244 14.6569745,14.6569745 C14.4289244,14.8850247 14.159065,14.9990498 13.8464462,14.9990498 C13.5214747,14.9990498 13.2516154,14.8850247 13.0349677,14.6569745 L9.94298746,11.5744964 C8.86735082,12.3194603 7.66913721,12.6919422 6.34644622,12.6919422 C5.48745724,12.6919422 4.66552642,12.5256556 3.88065374,12.1911821 C3.09673128,11.8586089 2.42018244,11.4072596 1.85290764,10.8399848 C1.28468263,10.2717598 0.834283542,9.59616116 0.500760167,8.81128848 C0.167236792,8.02736602 0,7.2054352 0,6.34644622 C0,5.48745724 0.167236792,4.66552642 0.500760167,3.88065374 C0.834283542,3.09673128 1.28468263,2.42018244 1.85290764,1.85290764 C2.42018244,1.28468263 3.09673128,0.833333333 3.88065374,0.500760167 C4.66552642,0.166286583 5.48745724,0 6.34644622,0 C7.2054352,0 8.02831623,0.166286583 8.81223869,0.500760167 C9.59616116,0.833333333 10.2717598,1.28468263 10.8399848,1.85290764 C11.4072596,2.42018244 11.8586089,3.09673128 12.1921323,3.88065374 C12.5256556,4.66552642 12.6928924,5.48745724 12.6928924,6.34644622 C12.6928924,7.668187 12.3194603,8.86640061 11.5744964,9.94298746 L14.6664766,13.0349677 Z" id="Fill-200-Copy"></path>
        </g>
    </g>
</svg>

<svg width="15" height="15" viewBox="0 0 15 15" version="1.1" xmlns="http://www.w3.org/2000/svg"><g id="Symbols" stroke="none" stroke-width="1" fill="none" fill-rule="evenodd"><g id="UI-element-/-Icons-/-Search---blue" fill="#0071BC"><path d="M9.199 9.199c.79-.79 1.186-1.74 1.186-2.853 0-1.111-.395-2.062-1.186-2.853-.79-.79-1.74-1.185-2.853-1.185-1.111 0-2.062.395-2.853 1.185-.79.79-1.185 1.742-1.185 2.853 0 1.112.395 2.063 1.185 2.853s1.742 1.186 2.853 1.186c1.112 0 2.063-.395 2.853-1.186zm5.467 3.836c.223.222.334.493.334.811 0 .313-.114.583-.343.811a1.107 1.107 0 0 1-.81.342c-.326 0-.595-.114-.812-.342l-3.092-3.083a6.172 6.172 0 0 1-3.597 1.118 6.23 6.23 0 0 1-2.465-.5 6.332 6.332 0 0 1-2.028-1.352A6.339 6.339 0 0 1 .5 8.811 6.234 6.234 0 0 1 0 6.346c0-.859.167-1.68.5-2.465a6.334 6.334 0 0 1 1.353-2.028A6.319 6.319 0 0 1 3.88.5 6.225 6.225 0 0 1 6.346 0c.86 0 1.682.166 2.466.5a6.33 6.33 0 0 1 2.028 1.353 6.35 6.35 0 0 1 1.352 2.028c.334.785.5 1.606.5 2.465 0 1.322-.373 2.52-1.118 3.597l3.092 3.092z" id="Fill-200-Copy"/></g></g></svg>
